icons/Logos/soundcloud-fill.svg

<svg viewBox="0 0 24 24" xmlns="http://www.w3.org/2000/svg"><path d="M10.464 8.59655C10.7291 8.59655 10.944 10.7026 10.944 13.3005L10.9427 13.6516C10.9244 16.0856 10.717 18.0045 10.464 18.0045C10.2079 18.0045 9.99871 16.0396 9.98474 13.5645L9.98408 13.2122C9.98889 10.655 10.2019 8.59655 10.464 8.59655ZM8.8 9.55655C9.05863 9.55655 9.26949 11.3566 9.27962 13.6107V13.9504C9.26949 16.2045 9.05863 18.0045 8.8 18.0045C8.5446 18.0045 8.33579 16.2492 8.32086 14.0347L8.3201 13.6954L8.32241 13.3549C8.34666 11.2219 8.55123 9.55655 8.8 9.55655ZM7.136 9.55655C7.3914 9.55655 7.60021 11.3119 7.61515 13.5263L7.6159 13.8657L7.61359 14.2062C7.58934 16.3392 7.38477 18.0045 7.136 18.0045C6.87737 18.0045 6.66651 16.2045 6.65638 13.9504V13.6107C6.66651 11.3566 6.87737 9.55655 7.136 9.55655ZM5.472 10.1325C5.7371 10.1325 5.952 11.8948 5.952 14.0685L5.95028 14.4038C5.92954 16.4207 5.72333 18.0045 5.472 18.0045C5.21035 18.0045 4.99759 16.2878 4.99211 14.153V13.9841C4.99759 11.8493 5.21035 10.1325 5.472 10.1325ZM3.808 11.8605C4.0731 11.8605 4.288 13.2359 4.288 14.9325L4.28738 15.0906C4.27452 16.7138 4.06481 18.0045 3.808 18.0045C3.5429 18.0045 3.328 16.6292 3.328 14.9325L3.32862 14.7745C3.34148 13.1513 3.55119 11.8605 3.808 11.8605ZM14.592 7.06055C17.1727 7.06055 19.3129 8.94627 19.71 11.415C20.0053 11.33 20.3173 11.2845 20.64 11.2845C22.4957 11.2845 24 12.7889 24 14.6445C24 16.4791 22.5297 17.9703 20.7031 18.004L20.64 18.0045H12.48C12.0558 18.0045 11.712 17.6607 11.712 17.2365V7.93345C12.5358 7.38209 13.5263 7.06055 14.592 7.06055ZM2.144 11.6685C2.4091 11.6685 2.624 13.0009 2.624 14.6445L2.62336 14.8001C2.6103 16.3714 2.40068 17.6205 2.144 17.6205C1.88311 17.6205 1.67084 16.3301 1.66416 14.7226L1.664 14.6445C1.664 13.0009 1.8789 11.6685 2.144 11.6685ZM0.48 12.6285C0.745097 12.6285 0.96 13.5741 0.96 14.7405L0.959091 14.8716C0.943709 15.977 0.735093 16.8525 0.48 16.8525C0.214903 16.8525 0 15.907 0 14.7405L0.000909213 14.6095C0.0162906 13.5041 0.224907 12.6285 0.48 12.6285Z"/></svg>

<svg xmlns="http://www.w3.org/2000/svg" viewBox="0 0 24 24">
    <g>
        <path fill="none" d="M0 0h24v24H0z"/>
        <path d="M10.464 8.596c.265 0 .48 2.106.48 4.704l-.001.351c-.019 2.434-.226 4.353-.479 4.353-.256 0-.465-1.965-.48-4.44v-.352c.005-2.558.218-4.616.48-4.616zm-1.664.96c.259 0 .47 1.8.48 4.054v.34c-.01 2.254-.221 4.054-.48 4.054-.255 0-.464-1.755-.48-3.97v-.34l.002-.34c.025-2.133.23-3.798.478-3.798zm-1.664 0c.255 0 .464 1.755.48 3.97v.34l-.002.34c-.025 2.133-.23 3.798-.478 3.798-.259 0-.47-1.8-.48-4.054v-.34c.01-2.254.221-4.054.48-4.054zm-1.664.576c.265 0 .48 1.762.48 3.936l-.002.335c-.02 2.017-.227 3.601-.478 3.601-.262 0-.474-1.717-.48-3.852v-.168c.006-2.135.218-3.852.48-3.852zM3.808 11.86c.265 0 .48 1.375.48 3.072v.158c-.013 1.623-.223 2.914-.48 2.914-.265 0-.48-1.375-.48-3.072v-.158c.013-1.623.223-2.914.48-2.914zm10.784-4.8c2.58 0 4.72 1.886 5.118 4.354a3.36 3.36 0 1 1 .993 6.589l-.063.001h-8.16a.768.768 0 0 1-.768-.768V7.933a5.16 5.16 0 0 1 2.88-.873zM2.144 11.668c.265 0 .48 1.332.48 2.976v.156c-.014 1.57-.223 2.82-.48 2.82-.26 0-.473-1.29-.48-2.898v-.078c0-1.644.215-2.976.48-2.976zm-1.664.96c.265 0 .48.946.48 2.112v.131c-.016 1.105-.225 1.981-.48 1.981-.265 0-.48-.946-.48-2.112v-.131c.016-1.105.225-1.981.48-1.981z"/>
    </g>
</svg>
